src/svgs/software-architecture.svg

<svg xmlns="http://www.w3.org/2000/svg" viewBox="0 0 24 24" width="512" height="512" aria-labelledby="jbsoftware-architecture-desc jbsoftware-architecture-title"><title id="jbsoftware-architecture-title">Software Architecture Icon</title><desc id="jbsoftware-architecture-desc">A picture depicting a scaffold.</desc><path d="M22 6V2h-4v1H6V2H2v4h1v12H2v4h4v-1h12v1h4v-4h-1V6zm-4 12v1H6v-1H5v-5h4v2h6v-2h4v5zm1-7h-4V9H9v2H5V6h1V5h12v1h1z"/></svg>

<svg xmlns="http://www.w3.org/2000/svg" viewBox="0 0 24 24"><path d="M22,6V2H18V3H6V2H2V6H3V18H2v4H6V21H18v1h4V18H21V6ZM18,18v1H6V18H5V13H9v2h6V13h4v5Zm1-7H15V9H9v2H5V6H6V5H18V6h1Z"/></svg>
